X: 1
T: Paddy Keenan's
M: 6/8
L: 1/8
R: jig
K: Edor
D|EGA B2A |Bee B2A |GBB FAA |GFE FED |
EGA B2A| Bee B2A |GBB FAA |GED E2D|
EGA B2A |Bee B2A |GBB FAA |GFE FED |
EGA B2A| Bee B2A |GBB FAA |GED E2A|
Bef g2e| fed edB |AFF dAF |AB=c def|
eBB g2e| fed edB |AFF dAF |FED E2A|
Bef g2e| fed edB |AFF dAF |AB=c def|
eBB g2e| fed edB |AFF dAF |FED E2z|
